assets/home-tab/Asset/banktransfer.svg

<svg width="24" height="24" viewBox="0 0 24 24" fill="none" xmlns="http://www.w3.org/2000/svg">
<g clip-path="url(#clip0_89_582)">
<path d="M13.4873 1C13.8237 0.999613 14.1053 1.18453 14.667 1.55469C18.3655 3.992 20.5907 5.90581 23.3193 9.01465C23.8404 9.60826 24.101 9.90538 23.9639 10.1484C23.8261 10.3916 23.3932 10.3916 22.5283 10.3916C22.2857 10.3917 22.0889 10.5913 22.0889 10.8369V20H22.3125C22.9305 20 23.4764 20.4371 23.6309 21.0635L23.7939 21.7275C24.012 22.6291 23.3671 23.5116 22.4766 23.5117H5.36328C4.47283 23.5117 3.81809 22.6293 4.04492 21.7373L4.20898 21.0723C4.36353 20.4461 4.90862 20.0002 5.52637 20H11.5801V15.5C11.5801 15.2117 11.6814 14.9323 11.8633 14.709C11.9707 14.5771 12.0791 14.4428 12.1885 14.3066C12.9999 13.4948 12.7194 11.9997 11.7402 11.0205C10.3083 9.23769 8.89365 8.39898 7.51465 7.02051C7.00346 6.50948 7.01412 5.6684 7.57031 5.20703C8.78589 4.19869 10.7199 2.61165 12.3105 1.55762C12.8708 1.18637 13.151 1.00052 13.4873 1ZM16.835 10.3916C16.0436 10.3916 15.4014 11.0415 15.4014 11.8428V20H18.2676V11.8428C18.2675 11.0416 17.6262 10.3917 16.835 10.3916ZM5.73633 8.0332C6.06694 7.88538 6.44902 8.2351 7.21289 8.93359C8.38853 10.0086 9.32698 10.9891 10.4551 12.3564C10.7281 12.6874 10.8651 12.8527 10.8652 13.0557C10.8652 13.2588 10.7284 13.4246 10.4551 13.7559C9.32587 15.1243 8.3879 16.1054 7.21191 17.1807C6.44865 17.8786 6.06695 18.2271 5.73633 18.0791C5.40582 17.931 5.40527 17.4036 5.40527 16.3486C5.40527 15.7763 5.40567 15.4901 5.30469 15.2676C5.19368 15.023 4.99916 14.8269 4.75684 14.7148C4.53633 14.6129 4.2526 14.6123 3.68555 14.6123H1.5459C0.694285 14.6123 0.00390625 13.9153 0.00390625 13.0557C0.00412603 12.1963 0.69442 11.5 1.5459 11.5H3.6875C4.25238 11.5 4.53502 11.4996 4.75488 11.3984C4.99842 11.2862 5.19452 11.0886 5.30566 10.8428C5.40581 10.6209 5.40527 10.3356 5.40527 9.76563C5.40527 8.70982 5.40569 8.18119 5.73633 8.0332ZM13.3877 3.63379C12.43 3.63381 11.6534 4.41995 11.6533 5.38965C11.6533 6.35938 12.4299 7.14548 13.3877 7.14551C14.3455 7.14551 15.1221 6.3594 15.1221 5.38965C15.122 4.41993 14.3454 3.63379 13.3877 3.63379Z" fill="white"/>
</g>
<defs>
<clipPath id="clip0_89_582">
<rect width="24" height="24" fill="white"/>
</clipPath>
</defs>
</svg>

<svg xmlns="http://www.w3.org/2000/svg" width="24" height="24" fill="none" viewBox="0 0 24 24"><g clip-path="url(#a)"><path fill="#fff" d="M13.487 1c.337 0 .618.185 1.18.555 3.699 2.437 5.924 4.35 8.652 7.46.521.593.782.89.645 1.133-.138.244-.57.244-1.436.244-.242 0-.44.2-.44.445V20h.224c.618 0 1.164.437 1.319 1.064l.163.663c.218.902-.427 1.785-1.317 1.785H5.363c-.89 0-1.545-.883-1.318-1.775l.164-.665c.155-.626.7-1.072 1.317-1.072h6.054v-4.5c0-.288.101-.568.283-.791l.325-.402c.812-.812.531-2.307-.448-3.286-1.432-1.783-2.846-2.622-4.225-4-.512-.512-.5-1.353.055-1.814 1.216-1.008 3.15-2.595 4.74-3.65.56-.37.841-.556 1.177-.557m3.348 9.392c-.791 0-1.434.65-1.434 1.45V20h2.867v-8.157c0-.801-.642-1.451-1.433-1.451M5.736 8.033c.33-.148.713.202 1.477.9a31.5 31.5 0 0 1 3.242 3.423c.273.331.41.497.41.7s-.137.369-.41.7a31.5 31.5 0 0 1-3.243 3.425c-.763.698-1.145 1.046-1.476.898s-.33-.675-.33-1.73c0-.573 0-.859-.101-1.081a1.12 1.12 0 0 0-.548-.553c-.22-.102-.504-.103-1.071-.103h-2.14a1.55 1.55 0 0 1-1.542-1.556c0-.86.69-1.556 1.542-1.556h2.141c.565 0 .848 0 1.068-.102.243-.112.44-.31.55-.555.1-.222.1-.507.1-1.077 0-1.056 0-1.585.331-1.733m7.652-4.4c-.958 0-1.735.787-1.735 1.757s.777 1.755 1.735 1.756c.957 0 1.734-.787 1.734-1.756 0-.97-.777-1.756-1.734-1.756"/></g><defs><clipPath id="a"><path fill="#fff" d="M0 0h24v24H0z"/></clipPath></defs></svg>
